icons/folder-video-24.svg

<?xml version="1.0" encoding="UTF-8"?><svg id="icons" xmlns="http://www.w3.org/2000/svg" viewBox="0 0 24 24"><defs><style>.cls-1{fill:none;}.cls-1,.cls-2{stroke-width:0px;}</style></defs><rect class="cls-1" width="24" height="24"/><path class="cls-2" d="m12.20001,5l-1.20001-2h-7l-1.20001,2h-1.79999v16h6.03156c-.20331-.31653-.3833-.64923-.53003-1H2v-11h20v11h-3.50146c-.14673.35077-.32678.68347-.53009,1h5.03156V5h-10.79999Zm9.79999,3H2v-2h1.36621l1.2002-2h5.86719l1.2002,2h10.36621v2Zm-9.49442,4.0056c-3.02961,0-5.49438,2.46477-5.49438,5.4944s2.46477,5.4944,5.49438,5.4944,5.49442-2.46477,5.49442-5.4944-2.46477-5.4944-5.49442-5.4944Zm-.00558,9.9944c-2.48102,0-4.5-2.01898-4.5-4.5s2.01898-4.5,4.5-4.5,4.5,2.01898,4.5,4.5-2.01898,4.5-4.5,4.5Zm-1.5-8v7l5-3.5-5-3.5Zm1,1.9209l2.25635,1.5791-2.25635,1.5791v-3.1582Z"/></svg>

<svg xmlns="http://www.w3.org/2000/svg" viewBox="0 0 24 24"><path stroke-width="0" fill="none" d="M0 0h24v24H0z"/><path d="M12.2 5L11 3H4L2.8 5H1v16h6.032a6.479 6.479 0 0 1-.53-1H2V9h20v11h-3.501a6.48 6.48 0 0 1-.53 1H23V5H12.2zM22 8H2V6h1.366l1.2-2h5.868l1.2 2H22v2zm-9.494 4.006c-3.03 0-5.495 2.464-5.495 5.494s2.465 5.494 5.495 5.494S18 20.53 18 17.5s-2.465-5.494-5.494-5.494zM12.5 22C10.019 22 8 19.981 8 17.5s2.019-4.5 4.5-4.5 4.5 2.019 4.5 4.5-2.019 4.5-4.5 4.5zM11 14v7l5-3.5-5-3.5zm1 1.92l2.256 1.58L12 19.08v-3.16z" stroke-width="0"/></svg>
